!!!!SEGMENT: Any2007-Ave_sanctissima_Maria--Regensburg_C120.krn
!!!id: Any2007
!!!AGN: Motet
!!!voices: 4
!!!COM: Anonymous
!!!OTL: Ave, sanctissima Maria (Regensburg C120)
**kern	**text	**kern	**text	**kern	**text	**kern	**text
*part4	*part4	*part3	*part3	*part2	*part2	*part1	*part1
*staff4	*staff4	*staff3	*staff3	*staff2	*staff2	*staff1	*staff1
*I"Bassus	*	*I"Tenor	*	*I"Altus	*	*I"Superius	*
*I'B	*	*I'T	*	*I'A	*	*I'S	*
*clefF4	*	*clefGv2	*	*clefGv2	*	*clefG2	*
*k[b-]	*	*k[b-]	*	*k[b-]	*	*k[b-]	*
*F:	*	*F:	*	*F:	*	*F:	*
*M2/1	*	*M2/1	*	*M2/1	*	*M2/1	*
*met(O2)	*	*met(O2)	*	*met(O2)	*	*met(O2)	*
!!section: Prima pars: Ave, sanctissima Maria
!!!OMD: Prima pars: Ave, sanctissima Maria
[0F	A-	0r	.	1c	A-	0r	.
.	.	.	.	1d	.	.	.
=1	=1	=1	=1	=1	=1	=1	=1
0F]	.	0r	.	1c	-ve,	0r	.
.	.	.	.	[1d	san-	.	.
=2	=2	=2	=2	=2	=2	=2	=2
0G	.	0r	.	1d]	.	0r	.
.	.	.	.	1e	-ctis-	.	.
=3	=3	=3	=3	=3	=3	=3	=3
[0D	-ve,	0r	.	2.f	.	[0f	A-
.	.	.	.	4e	.	.	.
.	.	.	.	4d	.	.	.
.	.	.	.	4c	.	.	.
.	.	.	.	[2d	.	.	.
=4	=4	=4	=4	=4	=4	=4	=4
0D]	.	0r	.	4d]	.	0f]	.
.	.	.	.	4c	.	.	.
.	.	.	.	2A	.	.	.
.	.	.	.	4B-y	-si-	.	.
.	.	.	.	4A	.	.	.
.	.	.	.	[2d	.	.	.
=5	=5	=5	=5	=5	=5	=5	=5
0E	.	0r	.	2d]	.	0g	.
.	.	.	.	4c	.	.	.
.	.	.	.	4B-y	.	.	.
.	.	.	.	1c	-ma,	.	.
=6	=6	=6	=6	=6	=6	=6	=6
[0BB-y	a-	1F	A-	2r	.	1f	-ve,
.	.	.	.	2.d	a-	.	.
.	.	1G	.	.	.	2.d	san-
.	.	.	.	4c	.	.	.
.	.	.	.	4d	.	.	.
.	.	.	.	4e	.	4c	.
=7	=7	=7	=7	=7	=7	=7	=7
0BB-]	.	1F	-ve,	2f	.	4d	.
.	.	.	.	.	.	4e	.
.	.	.	.	2.B-y	-ve,	2f	.
.	.	[1G	san-	.	.	2B-y	-ctis-
.	.	.	.	4c	.	.	.
.	.	.	.	2d	.	4b-y	.
.	.	.	.	.	.	4a	.
=8	=8	=8	=8	=8	=8	=8	=8
0C	.	1G]	.	4e	a-	4g	.
.	.	.	.	4d	.	4f	.
.	.	.	.	4c	.	2g	.
.	.	.	.	4B-y	.	.	.
.	.	1A	-ctis-	1c	.	1e	-si-
=9	=9	=9	=9	=9	=9	=9	=9
[0GG	-ve,	2.B-y	.	2d	.	0d	-ma,
.	.	.	.	2.G	-ve,	.	.
.	.	4A	.	.	.	.	.
.	.	4G	.	.	.	.	.
.	.	4F	.	4A	.	.	.
.	.	[2G	.	[2B-y	.	.	.
=10	=10	=10	=10	=10	=10	=10	=10
0GG]	.	4G]	.	4B-]	.	1r	.
.	.	4F	.	4A	.	.	.
.	.	2D	.	4G	.	.	.
.	.	.	.	4F	.	.	.
.	.	4E	.	2.G	.	1g	A-
.	.	4D	.	.	.	.	.
.	.	[2G	-si-	.	.	.	.
.	.	.	.	4F	.	.	.
=11	=11	=11	=11	=11	=11	=11	=11
0r	.	2G]	.	1D	san-	0a	-ve,
.	.	4F	.	.	.	.	.
.	.	4E	.	.	.	.	.
.	.	1F	-ma,	1c	.	.	.
=12	=12	=12	=12	=12	=12	=12	=12
1r	.	1G	san-	2.B-y	-ctis-	1.b-y	.
.	.	.	.	4c	.	.	.
1G	san-	[1B-y	-ctis-	1d	.	.	.
.	.	.	.	.	.	2a	san-
=13	=13	=13	=13	=13	=13	=13	=13
1E-X	.	1B-]	.	1e-X	-si-	1g	-ctis-
1F	.	1A	-si-	1c	.	[1f	.
=14	=14	=14	=14	=14	=14	=14	=14
1BB-y	-ctis-	0G	-ma,	1d	-ma,	2f]	.
.	.	.	.	.	.	4e	.
.	.	.	.	.	.	4d	.
1C	.	.	.	1c	.	1e	-si-
=15	=15	=15	=15	=15	=15	=15	=15
1AA	-si-	1F	a-	2r	.	[0f	-ma
.	.	.	.	2c	a-	.	.
1BB-y	.	2.D	-ve,	2B-y	-ve,	.	.
.	.	.	.	[2d	.	.	.
.	.	4E	.	.	.	.	.
=16	=16	=16	=16	=16	=16	=16	=16
1FF	-ma	4F	.	2d]	.	0f]	.
.	.	4G	.	.	.	.	.
.	.	4A	.	2c	.	.	.
.	.	4F	.	.	.	.	.
2r	.	2B-y	.	2.d	.	.	.
2D	Ma-	[2BB-y	san-	.	.	.	.
.	.	.	.	4e	.	.	.
=17	=17	=17	=17	=17	=17	=17	=17
1.D	-ri-	4BB-]	.	2f	.	0r	.
.	.	4C	.	.	.	.	.
.	.	4D	.	4F	san-	.	.
.	.	4E	.	4G	.	.	.
.	.	4F	.	4A	.	.	.
.	.	4G	.	4B-y	.	.	.
2C	.	2A	.	2c	.	.	.
=18	=18	=18	=18	=18	=18	=18	=18
1BB-y	.	1D	-ctis-	1d	.	0r	.
1C	.	2E	.	1G	-ctis-	.	.
.	.	[2G	.	.	.	.	.
=19	=19	=19	=19	=19	=19	=19	=19
1AA	-a,	2G]	.	2A	.	1r	.
.	.	2F#i	-si-	1c	.	.	.
1GG	.	1G	-ma	.	.	2r	.
.	.	.	.	2B-y	.	2g	Ma-
=20	=20	=20	=20	=20	=20	=20	=20
0r	.	2r	.	2.c	.	1.g	-ri-
.	.	2c	Ma-	.	.	.	.
.	.	.	.	4d	.	.	.
.	.	[1c	-ri-	2e	.	.	.
.	.	.	.	2f	-si-	2f	.
=21	=21	=21	=21	=21	=21	=21	=21
0r	.	2c]	.	1g	-ma	1e	.
.	.	2B-y	.	.	.	.	.
.	.	1A	.	2r	.	1f	.
.	.	.	.	2c	Ma-	.	.
=22	=22	=22	=22	=22	=22	=22	=22
1r	.	1B-y	.	2d	-ri-	1d	-a,
.	.	.	.	1f	.	.	.
1C	Ma-	1G	-a,	.	.	1c	.
.	.	.	.	2e	.	.	.
=23	=23	=23	=23	=23	=23	=23	=23
2.D	-ri-	1F	.	2f	-a,	1r	.
.	.	.	.	2d	Ma-	.	.
4E	.	.	.	.	.	.	.
4F	.	1r	.	[1d	-ri-	2r	.
4D	.	.	.	.	.	.	.
[2G	.	.	.	.	.	2g	Ma-
=24	=24	=24	=24	=24	=24	=24	=24
2G]	.	1r	.	2d]	.	1.g	-ri-
2C	.	.	.	2c	.	.	.
2E-X	.	2r	.	1B-y	.	.	.
2D	.	2F	Ma-	.	.	2f	.
=25	=25	=25	=25	=25	=25	=25	=25
1C	-a,	1G	-ri-	1c	.	1e	.
2r	.	2A	.	1A	-a,	1f	.
2FF	Ma-	[2c	.	.	.	.	.
=26	=26	=26	=26	=26	=26	=26	=26
1GG	-ri-	2c]	.	1G	.	1d	-a,
.	.	2BnXi	.	.	.	.	.
2AA	.	2c	-a,	1r	.	1c	.
[2C	.	2G	Ma-	.	.	.	.
=27	=27	=27	=27	=27	=27	=27	=27
2C]	.	1.G	-ri-	0r	.	2r	.
2BB-y	.	.	.	.	.	2d	Ma-
2C	.	.	.	.	.	2e	-ri-
2D	.	2F	.	.	.	2f	.
=28	=28	=28	=28	=28	=28	=28	=28
2AA	.	1E	.	1r	.	2c	.
2C	.	.	.	.	.	2e	.
4BB-y	-a,	1F	.	[1B-y	Ma-	2.d	.
4C	.	.	.	.	.	.	.
4D	.	.	.	.	.	.	.
4E	.	.	.	.	.	4c	.
=29	=29	=29	=29	=29	=29	=29	=29
1F	.	1D	-a,	1B-]	.	4d	.
.	.	.	.	.	.	4e	.
.	.	.	.	.	.	1f	.
1G	.	1C	.	[1c	.	.	.
.	.	.	.	.	.	2e	.
=30	=30	=30	=30	=30	=30	=30	=30
1F	.	2r	.	1c]	.	1f	-a,
.	.	1F	Ma-	.	.	.	.
1BB-y	Ma-	.	.	1d	-ter	1r	.
.	.	[2G	.	.	.	.	.
=31	=31	=31	=31	=31	=31	=31	=31
1C	.	2G]	.	1e	.	0r	.
.	.	1A	-ter	.	.	.	.
1D	-ter	.	.	2f	De-	.	.
.	.	[2B-y	.	2F	.	.	.
=32	=32	=32	=32	=32	=32	=32	=32
1E	.	2B-]	.	1G	.	0r	.
.	.	2.c	De-	.	.	.	.
1F	De-	.	.	2A	.	.	.
.	.	4B-y	.	.	.	.	.
.	.	[2A	.	[2d	.	.	.
=33	=33	=33	=33	=33	=33	=33	=33
1E	.	2A]	.	2d]	.	0r	.
.	.	2G	.	2c#i	.	.	.
2.D	.	4A	.	1d	-i,	.	.
.	.	4G	.	.	.	.	.
.	.	4F	.	.	.	.	.
4C	.	4E	.	.	.	.	.
=34	=34	=34	=34	=34	=34	=34	=34
2BB-y	.	4D	.	1r	.	1f	Ma-
.	.	4C	.	.	.	.	.
2AA	.	1F	.	.	.	.	.
2BB-y	.	.	.	2r	.	1g	.
2C	.	2E	.	[2c	Ma-	.	.
=35	=35	=35	=35	=35	=35	=35	=35
1FF	-i,	1F	-i,	2c]	.	1a	-ter
.	.	.	.	1d	.	.	.
1r	.	1G	.	.	.	1b-y	.
.	.	.	.	[2e	-ter	.	.
=36	=36	=36	=36	=36	=36	=36	=36
2r	.	2.A	Ma-	2e]	.	0cc	De-
2F	Re-	.	.	2.f	De-	.	.
.	.	4B-y	.	.	.	.	.
1F	-gi-	2c	.	.	.	.	.
.	.	.	.	4e	.	.	.
.	.	2A	-ter	2c	.	.	.
=37	=37	=37	=37	=37	=37	=37	=37
1BB-y	-na	1.d	De-	1f	-i,	1b-y	.
1F	cae-	.	.	2r	.	[1a	.
.	.	2D	.	2f	Re-	.	.
=38	=38	=38	=38	=38	=38	=38	=38
1F	-li,	1D	-i,	1f	-gi-	1a]	.
1G	Por-	2r	.	1B-y	-na	1g	.
.	.	[2d	Re-	.	.	.	.
=39	=39	=39	=39	=39	=39	=39	=39
1.F	.	2d]	.	1f	cae-	0a	-i,
.	.	4c	-gi-	.	.	.	.
.	.	4B-y	.	.	.	.	.
.	.	2A	-na	1f	-li,	.	.
4E	.	[2d	cae-	.	.	.	.
4D	.	.	.	.	.	.	.
=40	=40	=40	=40	=40	=40	=40	=40
1E	.	2d]	.	1g	Por-	0r	.
.	.	2c#i	.	.	.	.	.
1D	-ta,	2d	-li,	[1f	.	.	.
.	.	[2A	Por-	.	.	.	.
=41	=41	=41	=41	=41	=41	=41	=41
1r	.	4A]	.	2f]	.	2r	.
.	.	4G	.	.	.	.	.
.	.	4A	.	4e	.	2cc	Re-
.	.	4B-y	.	4d	.	.	.
2r	.	1c	-ta	1e	-ta	1cc	-gi-
2A	Por-	.	.	.	.	.	.
=42	=42	=42	=42	=42	=42	=42	=42
2B-y	.	1d	pa-	2d	pa-	1f	-na
2B-y	-ta,	.	.	1f	-ra-	.	.
1A	.	2.c	.	.	.	1cc	cae-
.	.	.	.	4e	.	.	.
.	.	4B-y	.	4d	.	.	.
=43	=43	=43	=43	=43	=43	=43	=43
2r	.	4A	.	2c	.	1cc	-li,
.	.	4G	.	.	.	.	.
2AA	Por-	4F	.	1A	-di-	.	.
.	.	4E	.	.	.	.	.
2BB-y	.	2.D	.	.	.	1dd	Por-
2BB-y	-ta,	.	.	2G	.	.	.
.	.	4E	.	.	.	.	.
=44	=44	=44	=44	=44	=44	=44	=44
1AA	.	2F	.	4A	.	1.cc	.
.	.	.	.	4B-y	.	.	.
.	.	2E	-ra-	4c	.	.	.
.	.	.	.	4d	.	.	.
1r	.	1A	-di-	2e	.	.	.
.	.	.	.	2f	.	4b-y	.
.	.	.	.	.	.	4a	.
=45	=45	=45	=45	=45	=45	=45	=45
2r	.	2G	.	2g	.	2b-y	.
2A	Por-	2F	.	2c	-si,	1a	.
2B-y	.	2G	.	1r	.	.	.
2B-y	-ta	[2d	.	.	.	2g	.
=46	=46	=46	=46	=46	=46	=46	=46
1A	.	2d]	.	2r	.	0a	-ta
.	.	2c#i	.	2e	pa-	.	.
1D	.	[1d	-si,	2f	-ra-	.	.
.	.	.	.	2F	.	.	.
=47	=47	=47	=47	=47	=47	=47	=47
2r	.	1d]	.	2G	-di-	0r	.
2D	pa-	.	.	2A	.	.	.
2GG	-ra-	1r	.	2B-y	.	.	.
2AA	.	.	.	[2A	.	.	.
=48	=48	=48	=48	=48	=48	=48	=48
1BB-y	-di-	1d	pa-	2A]	.	0r	.
.	.	.	.	2G	.	.	.
2.FF	.	1c	-ra-	2.A	.	.	.
4GG	.	.	.	4B-y	.	.	.
=49	=49	=49	=49	=49	=49	=49	=49
4AA	.	1.c	-di-	4c	.	0r	.
4BB-y	.	.	.	4d	.	.	.
4C	.	.	.	4e	.	.	.
4D	.	.	.	4f	.	.	.
4E	.	.	.	4g	.	.	.
4C	.	.	.	4e	.	.	.
4D	.	2B-y	.	4f	.	.	.
4E	.	.	.	4g	.	.	.
=50	=50	=50	=50	=50	=50	=50	=50
2F	.	2A	.	2c	.	0r	.
2BB-y	.	2B-y	.	2f	.	.	.
1C	.	1G	-si,	4e	.	.	.
.	.	.	.	4d	.	.	.
.	.	.	.	4c	.	.	.
.	.	.	.	4B-y	.	.	.
=51	=51	=51	=51	=51	=51	=51	=51
1FF	-si,	1F	.	2A	.	1a	pa-
.	.	.	.	1c	.	.	.
1r	.	2.C	pa-	.	.	1g	-ra-
.	.	.	.	[2G	-si,	.	.
.	.	4D	.	.	.	.	.
=52	=52	=52	=52	=52	=52	=52	=52
0r	.	4E	.	4G]	.	1.g	-di-
.	.	4F	.	4A	.	.	.
.	.	4G	.	4B-y	.	.	.
.	.	4A	.	4c	.	.	.
.	.	4B-y	.	2d	.	.	.
.	.	4G	.	.	.	.	.
.	.	4A	.	2c	.	2f	.
.	.	4B-y	.	.	.	.	.
=53	=53	=53	=53	=53	=53	=53	=53
0r	.	2c	.	2r	.	2e	.
.	.	2F	-ra-	1c	Do-	2f	.
.	.	1G	-di-	.	.	1d	-si,
.	.	.	.	2B-y	-mi-	.	.
=54	=54	=54	=54	=54	=54	=54	=54
1C	Do-	1C	-si,	1c	-na,	1c	.
1D	.	1r	.	2A	Do-	[1f	Do-
.	.	.	.	4B-y	-mi-	.	.
.	.	.	.	4c	.	.	.
=55	=55	=55	=55	=55	=55	=55	=55
1D	-mi-	0r	.	4d	.	1f]	.
.	.	.	.	4e	.	.	.
.	.	.	.	4f	.	.	.
.	.	.	.	4d	.	.	.
1C	.	.	.	2e	.	[1g	.
.	.	.	.	[2c	-na,	.	.
=56	=56	=56	=56	=56	=56	=56	=56
0C	-na	1r	.	2c]	.	1g]	.
.	.	.	.	1f	.	.	.
.	.	2r	.	.	.	1g	-mi-
.	.	2C	Do-	2e	Do-	.	.
=57	=57	=57	=57	=57	=57	=57	=57
1r	.	2.D	.	2.f	-mi-	1f	.
.	.	4C	.	4e	.	.	.
2r	.	4D	.	2d	.	1f	-na
.	.	4E	.	.	.	.	.
2FF	mun-	[2F	.	4c	.	.	.
.	.	.	.	4B-y	.	.	.
=58	=58	=58	=58	=58	=58	=58	=58
2AA	.	2F]	.	2c	.	0r	.
2BB-y	.	4E	.	2d	.	.	.
.	.	4D	.	.	.	.	.
1C	.	4E	.	1G	-na,	.	.
.	.	4D	.	.	.	.	.
.	.	[2G	-mi-	.	.	.	.
=59	=59	=59	=59	=59	=59	=59	=59
2BB-y	.	2G]	.	2r	.	1r	.
2AA	.	1F	.	2A	Do-	.	.
2GG	.	.	.	2B-y	-mi-	2r	.
2C	.	2E	.	2G	.	2c	mun-
=60	=60	=60	=60	=60	=60	=60	=60
1.BB-y	-di,	1F	-na	1.B-y	.	2.d	.
.	.	.	.	.	.	4c	.
.	.	2r	.	.	.	4d	.
.	.	.	.	.	.	4e	.
[2D	.	2F	mun-	4A	.	[2f	.
.	.	.	.	4G	.	.	.
=61	=61	=61	=61	=61	=61	=61	=61
1D]	.	2A	.	1F	-na	2f]	.
.	.	2B-y	.	.	.	4e	.
.	.	.	.	.	.	4d	.
1C	Do-	1c	-di.	1G	.	4e	.
.	.	.	.	.	.	4d	.
.	.	.	.	.	.	[2g	-di.
=62	=62	=62	=62	=62	=62	=62	=62
2GG	-mi-	2B-y	.	1r	.	2g]	.
2AA	.	2A	.	.	.	1f	.
2BB-y	.	1G	.	2r	.	.	.
2C	.	.	.	2G	mun-	2e	.
=63	=63	=63	=63	=63	=63	=63	=63
[0FF	-na	[0Fl	.	2.A	.	[0fl	.
.	.	.	.	4G	.	.	.
.	.	.	.	4A	.	.	.
.	.	.	.	4B-y	.	.	.
.	.	.	.	[2c	.	.	.
=64	=64	=64	=64	=64	=64	=64	=64
1FF]	.	0F_	.	2c]	.	0f_	.
.	.	.	.	4B-y	.	.	.
.	.	.	.	4A	.	.	.
1BB-y	mun-	.	.	4B-y	.	.	.
.	.	.	.	4A	.	.	.
.	.	.	.	[2d	-di.	.	.
=65	=65	=65	=65	=65	=65	=65	=65
1AA	-di.	0F_	.	2d]	.	0f_	.
.	.	.	.	1c	.	.	.
1BB-y	.	.	.	.	.	.	.
.	.	.	.	2B-y	.	.	.
=66	=66	=66	=66	=66	=66	=66	=66
00FF	.	00F]	.	00c	.	00f]	.
=67||	=67||	=67||	=67||	=67||	=67||	=67||	=67||
*M3/1	*	*M3/1	*	*M3/1	*	*M3/1	*
*met(C|3)	*	*met(C|3)	*	*met(C|3)	*	*met(C|3)	*
!!section: Secunda pars: Ave, sanctissima Maria
!!!OMD: Secunda pars: Ave, sanctissima Maria
0.r	.	0.r	.	1r	.	0cc	Tu
.	.	.	.	0f	Tu	.	.
.	.	.	.	.	.	1a	es
=68	=68	=68	=68	=68	=68	=68	=68
0.r	.	0.r	.	1d	es	1b-y	.
.	.	.	.	1e	.	0cc	sin-
.	.	.	.	[1f	sin-	.	.
=69	=69	=69	=69	=69	=69	=69	=69
0.r	.	0.r	.	1f]	.	1a	-gu-
.	.	.	.	1d	-gu-	1f	.
.	.	.	.	1B-y	.	[1g	-la-
=70	=70	=70	=70	=70	=70	=70	=70
1r	.	0c	Tu	2.c	-la-	1g]	.
.	.	.	.	4B-y	.	.	.
0F	Tu	.	.	2A	.	0a	-ris
.	.	.	.	2G	.	.	.
.	.	1A	es	[1F	.	.	.
=71	=71	=71	=71	=71	=71	=71	=71
1D	es	1B-y	.	1F]	.	0.r	.
1E	.	0c	sin-	1G	.	.	.
[1F	sin-	.	.	2.A	.	.	.
.	.	.	.	4B-y	.	.	.
=72	=72	=72	=72	=72	=72	=72	=72
1F]	.	1A	-gu-	2c	.	0.r	.
.	.	.	.	2A	.	.	.
1D	-gu-	1F	.	0d	-ris	.	.
1BB-y	.	[1G	-la-	.	.	.	.
=73	=73	=73	=73	=73	=73	=73	=73
0C	-la-	1G]	.	0e	Vir-	0.r	.
.	.	0A	-ris	.	.	.	.
[1D	-ris	.	.	[1A	.	.	.
=74	=74	=74	=74	=74	=74	=74	=74
1D]	.	1.F	Vir-	1A]	.	1r	.
1r	.	.	.	0c	-go	0a	Vir-
.	.	2G	.	.	.	.	.
1r	.	2A	.	.	.	.	.
.	.	2F	.	.	.	.	.
=75	=75	=75	=75	=75	=75	=75	=75
0.r	.	0B-y	.	1.d	.	1d	.
.	.	.	.	.	.	1f	.
.	.	.	.	1.c	pu-	.	.
.	.	1c	.	.	.	2.e	.
.	.	.	.	.	.	4d	.
=76	=76	=76	=76	=76	=76	=76	=76
0.r	.	1.d	.	1B-y	.	0g	.
.	.	.	.	0A	-ra,	.	.
.	.	4c	.	.	.	.	.
.	.	4B-y	.	.	.	.	.
.	.	1c	-go	.	.	1f	-go
=77	=77	=77	=77	=77	=77	=77	=77
0E	Vir-	1C	pu-	0G	.	1.g	pu-
.	.	1.c	.	.	.	.	.
.	.	.	.	.	.	2f	.
[1AA	.	.	.	1A	Vir-	2e	.
.	.	2B-y	.	.	.	2d	.
=78	=78	=78	=78	=78	=78	=78	=78
1AA]	.	1A	.	1.c	.	1c	.
0C	-go	1G	.	.	.	0e	.
.	.	.	.	2B-y	.	.	.
.	.	1A	.	2A	.	.	.
.	.	.	.	2G	.	.	.
=79	=79	=79	=79	=79	=79	=79	=79
1.D	.	1D	.	1F	.	0d	-ra,
.	.	1F	.	1.A	.	.	.
1.C	pu-	.	.	.	.	.	.
.	.	1E	.	.	.	1r	.
.	.	.	.	2G	.	.	.
=80	=80	=80	=80	=80	=80	=80	=80
1BB-y	.	1D	-ra,	0G	-go	1r	.
0AA	-ra,	1C	.	.	.	0a	Vir-
.	.	1c	Vir-	1F	.	.	.
=81	=81	=81	=81	=81	=81	=81	=81
0GG	.	0.B-y	.	2G	.	0d	.
.	.	.	.	2A	.	.	.
.	.	.	.	2B-y	.	.	.
.	.	.	.	2c	.	.	.
1r	.	.	.	2d	.	[1f	-go
.	.	.	.	2e	.	.	.
=82	=82	=82	=82	=82	=82	=82	=82
1r	.	1d	-go	0f	pu-	1f]	.
1r	.	0c	pu-	.	.	0g	.
1C	pu-	.	.	1e	.	.	.
=83	=83	=83	=83	=83	=83	=83	=83
1D	-ra.	1F	-ra.	1d	-ra.	1f	pu-
1AA	.	1A	.	1c	.	1e	.
[1BB-y	.	1D	.	[1B-y	.	[1d	-ra.
=84	=84	=84	=84	=84	=84	=84	=84
1BB-]	.	0F	.	2B-]	.	1d]	.
.	.	.	.	2A	.	.	.
0C	.	.	.	2.G	.	0c	.
.	.	.	.	4F	.	.	.
.	.	1E	.	1G	.	.	.
=85	=85	=85	=85	=85	=85	=85	=85
*M2/1	*	*M2/1	*	*M2/1	*	*M2/1	*
*met(C|)	*	*met(C|)	*	*met(C|)	*	*met(C|)	*
0BB-y	.	[0F	.	0d	Tu	0r	.
=86	=86	=86	=86	=86	=86	=86	=86
2r	.	0F]	.	1d	con-	0a	Tu
1D	Tu	.	.	.	.	.	.
.	.	.	.	1d	-ce-	.	.
[2D	con-	.	.	.	.	.	.
=87	=87	=87	=87	=87	=87	=87	=87
2D]	.	2r	.	0d	-pi-	1a	con-
2D	-ce-	1A	Tu	.	.	.	.
2D	-pi-	.	.	.	.	1a	-ce-
2D	-sti	[2A	con-	.	.	.	.
=88	=88	=88	=88	=88	=88	=88	=88
0F	Je-	2A]	.	0c	-sti	0a	-pi-
.	.	2A	-ce-	.	.	.	.
.	.	2A	-pi-	.	.	.	.
.	.	2A	-sti	.	.	.	.
=89	=89	=89	=89	=89	=89	=89	=89
0C	-sum,	0c	Je-	1r	.	0g	-sti
.	.	.	.	[1e-X	Je-	.	.
=90	=90	=90	=90	=90	=90	=90	=90
0r	.	0G	-sum,	1e-]	.	1r	.
.	.	.	.	[1d	.	[1b-y	Je-
=91	=91	=91	=91	=91	=91	=91	=91
0r	.	1G	Je-	2d]	.	1b-]	.
.	.	.	.	4c	.	.	.
.	.	.	.	4B-y	.	.	.
.	.	1A	.	1c	.	[1a	.
=92	=92	=92	=92	=92	=92	=92	=92
1r	.	1.B-y	.	[0d	-sum,	2a]	.
.	.	.	.	.	.	4g	.
.	.	.	.	.	.	4f	.
1GG	Je-	.	.	.	.	1g	.
.	.	4A	.	.	.	.	.
.	.	4G	.	.	.	.	.
=93	=93	=93	=93	=93	=93	=93	=93
[0D	-sum,	0F	-sum,	0d_	.	0a	-sum,
=94	=94	=94	=94	=94	=94	=94	=94
0D]	.	0A	si-	0d_	.	1r	.
.	.	.	.	.	.	[1a	si-
=95	=95	=95	=95	=95	=95	=95	=95
2r	.	1F	-ne	0d]	.	1a]	.
1D	si-	.	.	.	.	.	.
.	.	1B-y	pec-	.	.	1f	-ne
[2BB-y	-ne	.	.	.	.	.	.
=96	=96	=96	=96	=96	=96	=96	=96
2BB-]	.	1G	-ca-	1r	.	0g	pec-
2C	pec-	.	.	.	.	.	.
2BB-y	.	[1B-y	.	[1d	si-	.	.
2GG	.	.	.	.	.	.	.
=97	=97	=97	=97	=97	=97	=97	=97
1BB-y	-ca-	2B-]	.	1d]	.	0f	-ca-
.	.	4A	.	.	.	.	.
.	.	4G	.	.	.	.	.
1D	.	1F	.	1B-y	-ne	.	.
=98	=98	=98	=98	=98	=98	=98	=98
0C	-to,	0G	-to,	0c	pec-	0e	.
=99	=99	=99	=99	=99	=99	=99	=99
1GG	.	2r	.	1B-y	-ca-	2.d	-to,
.	.	2G	si-	.	.	.	.
.	.	.	.	.	.	4e	.
2r	.	2F	-ne	2c	-to,	2f	.
2GG	pec-	[2B-y	pec-	[2d	pec-	[2g	pec-
=100	=100	=100	=100	=100	=100	=100	=100
1BB-y	-ca-	4B-]	.	2d]	.	2g]	.
.	.	4A	.	.	.	.	.
.	.	2B-y	.	1.c	.	1f	.
1C	.	2G	-ca-	.	.	.	.
.	.	[2c	-to.	.	.	2e	-ca-
=101	=101	=101	=101	=101	=101	=101	=101
0D	-to.	2c]	.	1F	-ca-	1f	-to.
.	.	4B-y	.	.	.	.	.
.	.	4A	.	.	.	.	.
.	.	2B-y	.	[1f	.	1r	.
.	.	[2A	.	.	.	.	.
=102	=102	=102	=102	=102	=102	=102	=102
2r	.	2A]	.	2f]	.	0cc	Tu
2C	Tu	4G	.	4e	.	.	.
.	.	4F	.	4d	.	.	.
2C	pe-	2G	.	[1e	-to.	.	.
2C	-pe-	2c	Tu	.	.	.	.
=103	=103	=103	=103	=103	=103	=103	=103
1C	-ri-	2c	pe-	1e]	.	1cc	pe-
.	.	2c	-pe-	.	.	.	.
1FF	-sti	1c	-ri-	1r	.	1cc	-pe-
=104	=104	=104	=104	=104	=104	=104	=104
2r	.	2F	-sti	2r	.	0cc	-ri-
2.FF	Cre-	1c	Cre-	2f	Tu	.	.
.	.	.	.	2f	pe-	.	.
4GG	-a-	.	.	.	.	.	.
2AA	-to-	2A	-a-	2f	-pe-	.	.
=105	=105	=105	=105	=105	=105	=105	=105
2.BB-y	.	2.d	-to-	2f	-ri-	[0f	-sti
.	.	.	.	2B-y	-sti	.	.
4C	.	4c	.	.	.	.	.
4D	.	2B-y	.	2.f	Cre-	.	.
4E	.	.	.	.	.	.	.
2F	.	2A	.	.	.	.	.
.	.	.	.	4e	-a-	.	.
=106	=106	=106	=106	=106	=106	=106	=106
2BB-y	.	2B-y	.	2d	-to-	0f]	.
2AA	.	1c	.	2c	.	.	.
1BB-y	-rem,	.	.	1d	.	.	.
.	.	2B-y	.	.	.	.	.
=107	=107	=107	=107	=107	=107	=107	=107
2F	Cre-	[0c	-rem,	2c	-rem,	0r	.
2E	-a-	.	.	1g	Cre-	.	.
1C	.	.	.	.	.	.	.
.	.	.	.	2e	-a-	.	.
=108	=108	=108	=108	=108	=108	=108	=108
2.F	-to-	0c]	.	2.a	-to-	2r	.
.	.	.	.	.	.	1cc	Cre-
4G	.	.	.	4g	.	.	.
1A	.	.	.	2f	.	.	.
.	.	.	.	2e	.	2a	-a-
=109	=109	=109	=109	=109	=109	=109	=109
2D	.	2r	.	2f	.	2.dd	-to-
2G	.	2G	Cre-	1g	.	.	.
.	.	.	.	.	.	4cc	.
2.D	.	1d	-a-	.	.	2b-y	.
.	.	.	.	2f	.	2a	.
4F	.	.	.	.	.	.	.
=110	=110	=110	=110	=110	=110	=110	=110
2E-X	.	2G	-to-	0g	-rem	2b-y	.
2D	.	2c	.	.	.	1cc	.
2G	.	1d	.	.	.	.	.
2GG	.	.	.	.	.	2bnXi	.
=111	=111	=111	=111	=111	=111	=111	=111
1AA	-rem	0c	-rem	2r	.	0cc	-rem
.	.	.	.	2e	et	.	.
2r	.	.	.	2g	Sal-	.	.
2AA	et	.	.	2f	-va-	.	.
=112	=112	=112	=112	=112	=112	=112	=112
2.C	Sal-	2r	.	2.e	-to-	0r	.
.	.	2A	et	.	.	.	.
4BB-y	-va-	.	.	4d	.	.	.
2AA	-to-	2.c	Sal-	4e	.	.	.
.	.	.	.	4f	.	.	.
2GG	.	.	.	2g	-rem,	.	.
.	.	4B-y	-va-	.	.	.	.
=113	=113	=113	=113	=113	=113	=113	=113
2FF	.	2A	-to-	2.c	Sal-	0r	.
2C	.	2G	-rem	.	.	.	.
.	.	.	.	4B-y	-va-	.	.
2D	.	2F	mun-	2A	-to-	.	.
2E	.	2G	.	2G	.	.	.
=114	=114	=114	=114	=114	=114	=114	=114
2F	.	1D	-di,	2A	-rem	0r	.
2D	-rem	.	.	2.d	mun-	.	.
[1G	mun-	1E	.	.	.	.	.
.	.	.	.	4c	.	.	.
.	.	.	.	[2c	.	.	.
=115	=115	=115	=115	=115	=115	=115	=115
2G]	.	0D	.	2c]	.	0r	.
4F	.	.	.	4BnXi	.	.	.
4E	.	.	.	4A	.	.	.
1F	.	.	.	1Bni	.	.	.
=116	=116	=116	=116	=116	=116	=116	=116
0FF	-di,	0C	.	1c	-di,	2r	.
.	.	.	.	.	.	2a	et
.	.	.	.	2r	.	2.cc	Sal-
.	.	.	.	2A	et	.	.
.	.	.	.	.	.	4b-y	-va-
=117	=117	=117	=117	=117	=117	=117	=117
0r	.	0r	.	2.c	Sal-	2a	-to-
.	.	.	.	.	.	2g	.
.	.	.	.	4B-y	-va-	.	.
.	.	.	.	2A	-to-	2f	.
.	.	.	.	2G	.	2g	.
=118	=118	=118	=118	=118	=118	=118	=118
0r	.	1r	.	4A	.	4f	.
.	.	.	.	4G	.	4e	.
.	.	.	.	1c	.	4d	.
.	.	.	.	.	.	4c	.
.	.	2r	.	.	.	1d	.
.	.	2G	in	2BnXi	.	.	.
=119	=119	=119	=119	=119	=119	=119	=119
2r	.	1A	quo	1c	-rem	0c	-rem
2F	in	.	.	.	.	.	.
2E	quo	2G	e-	1r	.	.	.
2F	.	2A	.	.	.	.	.
=120	=120	=120	=120	=120	=120	=120	=120
1BB-y	e-	2D	-go,	2r	.	0f	mun-
.	.	2.d	in	2B-y	mun-	.	.
1D	.	.	.	2A	.	.	.
.	.	4c	.	.	.	.	.
.	.	2d	.	2B-y	.	.	.
=121	=121	=121	=121	=121	=121	=121	=121
1C	-go,	2G	quo	1E-X	-di,	0g	-di,
.	.	2c	e-	.	.	.	.
1E-X	.	2B-y	.	2r	.	.	.
.	.	2c	.	2G	in	.	.
=122	=122	=122	=122	=122	=122	=122	=122
0D	.	2F	-go,	1d	quo	0f	.
.	.	2B-y	e-	.	.	.	.
.	.	2A	.	1d	e-	.	.
.	.	2B-y	.	.	.	.	.
=123	=123	=123	=123	=123	=123	=123	=123
1G	in	1E-X	-go,	1e-X	-go,	1r	.
[1G	quo	2.B-y	.	2.d	.	1g	in
.	.	4c	.	4c	.	.	.
=124	=124	=124	=124	=124	=124	=124	=124
2G]	.	1d	.	2B-y	.	1.g	quo
2F	e-	.	.	2A	.	.	.
2E	.	2c	e-	2G	.	.	.
2D	.	2F	-go	[2A	.	2f	.
=125	=125	=125	=125	=125	=125	=125	=125
2C	.	1c	non	4A]	.	1e	.
.	.	.	.	4G	.	.	.
2AA	.	.	.	1c	e-	.	.
1BB-y	-go	1G	.	.	.	1d	e-
.	.	.	.	2B-y	.	.	.
=126	=126	=126	=126	=126	=126	=126	=126
0FF	non	0A	.	1c	-go	1f	.
.	.	.	.	[1F	non	1f	-go
=127	=127	=127	=127	=127	=127	=127	=127
0BB-y	.	0F	du-	1F]	.	1r	.
.	.	.	.	[1B-y	.	1f	non
=128	=128	=128	=128	=128	=128	=128	=128
0GG	.	0B-y	.	2B-]	.	0g	du-
.	.	.	.	4A	.	.	.
.	.	.	.	4G	.	.	.
.	.	.	.	[1d	.	.	.
=129	=129	=129	=129	=129	=129	=129	=129
0D	.	1A	-bi-	2d]	.	0a	.
.	.	.	.	4c	.	.	.
.	.	.	.	4B-y	.	.	.
.	.	1d	.	1f	.	.	.
=130	=130	=130	=130	=130	=130	=130	=130
1E-X	du-	1G	-to.	1B-y	du-	1g	-bi-
1D	.	1A	.	[1d	-bi-	[1f	.
=131	=131	=131	=131	=131	=131	=131	=131
1BB-y	-bi-	0G	.	1d]	.	2f]	.
.	.	.	.	.	.	4e	.
.	.	.	.	.	.	4d	.
1C	.	.	.	[1c	.	1e	.
=132	=132	=132	=132	=132	=132	=132	=132
[0FFl	-to.	[0Fl	.	1c]	.	[0fl	-to.
.	.	.	.	2.A	-to.	.	.
.	.	.	.	4B-y	.	.	.
=133	=133	=133	=133	=133	=133	=133	=133
00FF]	.	00F]	.	00c	.	00f]	.
=134||	=134||	=134||	=134||	=134||	=134||	=134||	=134||
*M3/1	*	*M3/1	*	*M3/1	*	*M3/1	*
*met(O|)	*	*met(O|)	*	*met(O|)	*	*met(O|)	*
!!section: Tertia pars: Ora pro nobis
!!!OMD: Tertia pars: Ora pro nobis
!	!	!	!	!	!	!LO:TX:a:t=Canon&colon; superius/tenor at the octave	!
0.r	.	0.r	.	2.d	O-	0.a	O-
.	.	.	.	4e	.	.	.
.	.	.	.	2f	.	.	.
.	.	.	.	2d	.	.	.
.	.	.	.	1f	.	.	.
=135	=135	=135	=135	=135	=135	=135	=135
0.r	.	0.r	.	2c	-ra,	0.g	.
.	.	.	.	2.e-X	o-	.	.
.	.	.	.	4d	.	.	.
.	.	.	.	2c	.	.	.
.	.	.	.	2B-y	.	.	.
.	.	.	.	[2c	.	.	.
=136	=136	=136	=136	=136	=136	=136	=136
0.r	.	0.r	.	4c]	.	0.a	.
.	.	.	.	4F	.	.	.
.	.	.	.	2.F	-ra,	.	.
.	.	.	.	4G	.	.	.
.	.	.	.	4A	.	.	.
.	.	.	.	4B-y	.	.	.
.	.	.	.	2c	.	.	.
.	.	.	.	2A	.	.	.
=137	=137	=137	=137	=137	=137	=137	=137
2.D	O-	0.A	O-	1d	.	0.f	-ra
4E	.	.	.	.	.	.	.
2F	.	.	.	2r	.	.	.
2D	.	.	.	2d	o-	.	.
1F	.	.	.	2c	.	.	.
.	.	.	.	2d	.	.	.
=138	=138	=138	=138	=138	=138	=138	=138
2C	-ra,	0.G	.	2e	-ra,	0.r	.
2.E-X	o-	.	.	2.g	o-	.	.
4D	.	.	.	4f	.	.	.
2C	.	.	.	2e	.	.	.
2BB-y	.	.	.	2d	.	.	.
[2C	.	.	.	2e	.	.	.
=139	=139	=139	=139	=139	=139	=139	=139
4C]	.	0.A	.	2c	-ra,	1r	.
4FF	.	.	.	.	.	.	.
2.FF	-ra	.	.	1f	o-	.	.
.	.	.	.	.	.	1r	.
4GG	.	.	.	.	.	.	.
4AA	.	.	.	4e	.	.	.
4BB-y	.	.	.	4d	.	.	.
2C	.	.	.	1e	-ra,	1a	pro
2AA	.	.	.	.	.	.	.
=140	=140	=140	=140	=140	=140	=140	=140
0D	.	0.F	-ra	1.f	o-	0a	no-
.	.	.	.	4e	.	.	.
.	.	.	.	4d	.	.	.
2r	.	.	.	1d	-ra	[1f	.
2D	pro	.	.	.	.	.	.
=141	=141	=141	=141	=141	=141	=141	=141
1D	no-	0.r	.	2r	.	1f]	.
.	.	.	.	2d	pro	.	.
2BB-y	.	.	.	2d	no-	0b-y	-bis
1E-X	.	.	.	2B-y	.	.	.
.	.	.	.	2e-X	.	.	.
2D	-bis	.	.	[2f	.	.	.
=142	=142	=142	=142	=142	=142	=142	=142
2.F	Je-	1r	.	4f]	.	0.a	.
.	.	.	.	4e-i	-bis	.	.
.	.	.	.	1c	Je-	.	.
4E-i	.	.	.	.	.	.	.
2C	.	1r	.	.	.	.	.
1D	.	.	.	1f	.	.	.
.	.	1A	pro	.	.	.	.
4C	.	.	.	4eny	.	.	.
4BB-y	.	.	.	4d	.	.	.
=143	=143	=143	=143	=143	=143	=143	=143
2AA	.	0A	no-	2e	.	0cc	.
2FF	-sum,	.	.	1.f	.	.	.
1F	pro	.	.	.	.	.	.
2.BB-y	no-	[1F	-bis	[1d	-sum,	1b-y	.
4C	.	.	.	.	.	.	.
=144	=144	=144	=144	=144	=144	=144	=144
0D	.	1F]	.	0.d]	.	0a	Je-
.	.	0B-y	Je-	.	.	.	.
1GG	-bis	.	.	.	.	1g	.
=145	=145	=145	=145	=145	=145	=145	=145
1.D	Je-	0.A	.	2r	.	1a	-sum
.	.	.	.	1d	o-	.	.
.	.	.	.	.	.	2.f	.
1.F	.	.	.	4c	.	.	.
.	.	.	.	4B-y	.	4g	.
.	.	.	.	2c	-ra	1a	.
.	.	.	.	2d	pro	.	.
=146	=146	=146	=146	=146	=146	=146	=146
1C	-sum,	0c	.	2.e	no-	2r	.
.	.	.	.	.	.	2g	pro
.	.	.	.	4f	.	.	.
2r	.	.	.	2g	-bis	2.e	no-
2C	pro	.	.	4G	Je-	.	.
.	.	.	.	4A	.	4f	.
4GG	no-	1B-y	-sum,	4B-y	.	1g	.
4AA	.	.	.	4c	.	.	.
4BB-y	.	.	.	[2d	.	.	.
4C	.	.	.	.	.	.	.
=147	=147	=147	=147	=147	=147	=147	=147
4D	.	0A	Je-	2d]	.	1f	-bis,
4E	.	.	.	.	.	.	.
1F	.	.	.	1c	.	.	.
.	.	.	.	.	.	2r	.
2FF	.	.	.	2A	.	2f	pro
1BB-y	-bis	1G	.	1B-y	.	2.d	no-
.	.	.	.	.	.	4e	.
=148	=148	=148	=148	=148	=148	=148	=148
[0.AA	Je-	[0.Al	-sum,	0.c	-sum,	1f	.
.	.	.	.	.	.	0e	-bis
=149	=149	=149	=149	=149	=149	=149	=149
1AA]	.	0.A_	.	2r	.	2r	.
.	.	.	.	2f	pro	4a	Je-
.	.	.	.	.	.	4g	.
0D	.	.	.	2.d	no-	4f	.
.	.	.	.	.	.	4e	.
.	.	.	.	.	.	4d	.
.	.	.	.	4e	.	4c	.
.	.	.	.	1f	.	1d	.
=150	=150	=150	=150	=150	=150	=150	=150
[0.AAl	-sum,	0.A_	.	2e	-bis	[0.cl	-sum,
.	.	.	.	4c	Je-	.	.
.	.	.	.	4B-y	.	.	.
.	.	.	.	4A	.	.	.
.	.	.	.	4G	.	.	.
.	.	.	.	4F	.	.	.
.	.	.	.	4E	.	.	.
.	.	.	.	1F	.	.	.
=151	=151	=151	=151	=151	=151	=151	=151
00AA]	.	00A]	.	00E	-sum,	00c]	.
=152||	=152||	=152||	=152||	=152||	=152||	=152||	=152||
*M2/1	*	*M2/1	*	*M2/1	*	*M2/1	*
*met(C|)	*	*met(C|)	*	*met(C|)	*	*met(C|)	*
!!section: Quarta pars: Tuum dilectum
!!!OMD: Quarta pars: Tuum dilectum
!	!	!	!	!LO:TX:a:t=Canon&colon; altus/tenor at the fifth	!	!	!
1C	Tu-	0r	.	0c	Tu-	1g	Tu-
2C	-um	.	.	.	.	2g	-um
2C	di-	.	.	.	.	2g	di-
=153	=153	=153	=153	=153	=153	=153	=153
1FF	-le-	0F	Tu-	1c	-um	2a	-le-
.	.	.	.	.	.	2.cc	-ctum
1FF	-ctum	.	.	1c	di-	.	.
.	.	.	.	.	.	4b-y	.
.	.	.	.	.	.	4a	.
.	.	.	.	.	.	4g	.
=154	=154	=154	=154	=154	=154	=154	=154
2.BB-y	fi-	1F	-um	0d	-le-	2f	.
.	.	.	.	.	.	2b-y	fi-
4C	.	.	.	.	.	.	.
4D	.	1F	di-	.	.	2.a	.
4E	.	.	.	.	.	.	.
2F	-li-	.	.	.	.	.	.
.	.	.	.	.	.	8gL	.
.	.	.	.	.	.	8fJ	.
=155	=155	=155	=155	=155	=155	=155	=155
0C	-um,	0G	-le-	0c	-ctum	2e	.
.	.	.	.	.	.	1f	.
.	.	.	.	.	.	2e	-li-
=156	=156	=156	=156	=156	=156	=156	=156
0r	.	0F	-ctum	0c	Fi-	1.f	-um,
.	.	.	.	.	.	2e	di-
=157	=157	=157	=157	=157	=157	=157	=157
1r	.	0F	Fi-	0A	-li-	2d	-le-
.	.	.	.	.	.	2c	-ctum
1FF	Fi-	.	.	.	.	[1c	Fi-
=158	=158	=158	=158	=158	=158	=158	=158
1GG	.	0D	-li-	0G	.	1c]	.
1GG	-li-	.	.	.	.	1BnXi	-li-
=159	=159	=159	=159	=159	=159	=159	=159
[0C	-um,	0C	.	[0G	-um,	[0c	-um,
=160	=160	=160	=160	=160	=160	=160	=160
0C;]	.	0C;	-um,	0G;]	.	0c;]	.
=161||	=161||	=161||	=161||	=161||	=161||	=161||	=161||
*M3/1	*	*M3/1	*	*M3/1	*	*M3/1	*
*met(3)	*	*met(3)	*	*met(3)	*	*met(3)	*
0.r	.	0.r	.	1.G	et	0g	et
.	.	.	.	2A	li-	.	.
.	.	.	.	2B-y	-be-	1g	li-
.	.	.	.	[2c	-ra,	.	.
=162	=162	=162	=162	=162	=162	=162	=162
0.r	.	0.r	.	2c]	.	0g	-be-
.	.	.	.	2G	et	.	.
.	.	.	.	2B-y	li-	.	.
.	.	.	.	2c	-be-	.	.
.	.	.	.	1d	-ra	1f	.
=163	=163	=163	=163	=163	=163	=163	=163
0.r	.	0.r	.	1c	nos,	0g	-ra
.	.	.	.	1B-y	.	.	.
.	.	.	.	1G	.	[1g	nos,
=164	=164	=164	=164	=164	=164	=164	=164
0.r	.	0.r	.	0c	.	1g]	.
.	.	.	.	.	.	0a	.
.	.	.	.	1F	.	.	.
=165	=165	=165	=165	=165	=165	=165	=165
1.GG	et	0G	et	1.B-y	et	0.r	.
2AA	li-	.	.	2c	li-	.	.
2BB-y	-be-	1G	li-	2d	-be-	.	.
[2C	-ra,	.	.	[2e-i	-ra	.	.
=166	=166	=166	=166	=166	=166	=166	=166
2C]	.	0G	-be-	2e-]	.	0.r	.
2GG	et	.	.	1d	.	.	.
2BB-y	li-	.	.	.	.	.	.
2C	-be-	.	.	1c	.	.	.
1D	-ra	1F	.	.	.	.	.
.	.	.	.	2B-y	.	.	.
=167	=167	=167	=167	=167	=167	=167	=167
1C	nos,	0G	-ra	1c	nos,	0.r	.
1BB-y	.	.	.	1d	.	.	.
1GG	.	[1G	nos,	1B-y	.	.	.
=168	=168	=168	=168	=168	=168	=168	=168
0C	.	1G]	.	1G	.	0.r	.
.	.	0A	.	0c	.	.	.
1FF	.	.	.	.	.	.	.
=169	=169	=169	=169	=169	=169	=169	=169
*M2/1	*	*M2/1	*	*M2/1	*	*M2/1	*
*met(C|)	*	*met(C|)	*	*met(C|)	*	*met(C|)	*
0BB-y	ab	1r	.	2B-y	ab	2r	.
.	.	.	.	2.F	o-	2d	ab
.	.	1F	ab	.	.	4d	o-
.	.	.	.	4E	.	4e	.
.	.	.	.	[2D	.	4f	.
.	.	.	.	.	.	4g	.
=170	=170	=170	=170	=170	=170	=170	=170
1AA	o-	1F	o-	2D]	.	1a	-mni-
.	.	.	.	2C	-mni-	.	.
1GG	.	1G	.	2D	-bus	1b-y	.
.	.	.	.	2E	ma-	.	.
=171	=171	=171	=171	=171	=171	=171	=171
1FF	-mni-	1A	-mni-	1F	-lis,	1a	-bus
[1EE-X	-bus	[1B-y	-bus,	[1G	ab	[1g	ma-
=172	=172	=172	=172	=172	=172	=172	=172
1EE-]	.	1B-]	.	1G]	.	1g]	.
1FF	ma-	1A	ab	[1c	.	[1f	.
=173	=173	=173	=173	=173	=173	=173	=173
0C	-lis	0G	o-	0c]	.	2f]	.
.	.	.	.	.	.	4e	.
.	.	.	.	.	.	4d	.
.	.	.	.	.	.	1e	-lis,
=174	=174	=174	=174	=174	=174	=174	=174
1D	ab	0F	.	1A	o-	1.f	ab
[1BB-y	.	.	.	1B-y	.	.	.
.	.	.	.	.	.	2d	o-
=175	=175	=175	=175	=175	=175	=175	=175
2BB-]	.	0D	-mni-	1F	-mni-	1f	-mni-
2AA	.	.	.	.	.	.	.
1GG	o-	.	.	1B-y	.	1g	.
=176	=176	=176	=176	=176	=176	=176	=176
[0D	-mni-	0F	.	2A	-bus	1.a	-bus
.	.	.	.	2.d	ma-	.	.
.	.	.	.	4c	.	.	.
.	.	.	.	4d	.	2f	ma-
.	.	.	.	4e	.	.	.
=177	=177	=177	=177	=177	=177	=177	=177
1D]	.	1F	-bus	1f	-lis,	2a	.
.	.	.	.	.	.	2b-y	.
1C	-bus	1G	.	2r	.	1cc	-lis,
.	.	.	.	[2e	ab	.	.
=178	=178	=178	=178	=178	=178	=178	=178
1AA	ma-	1A	ma-	2e]	.	2r	.
.	.	.	.	2.f	.	2cc	ab
1BB-y	.	1G	.	.	.	2dd	o-
.	.	.	.	4e	.	.	.
.	.	.	.	4d	.	[2b-y	-mni-
.	.	.	.	4c	.	.	.
=179	=179	=179	=179	=179	=179	=179	=179
1GG	-lis,	[0G	-lis.	2B-y	o-	4b-]	.
.	.	.	.	.	.	4a	.
.	.	.	.	1d	.	4g	.
.	.	.	.	.	.	4f	.
2r	.	.	.	.	.	4e	.
.	.	.	.	.	.	4d	.
2C	ma-	.	.	2c	-mni-	2e	.
=180	=180	=180	=180	=180	=180	=180	=180
2BB-y	.	0G_	.	2d	-bus	2d	-bus
2GG	.	.	.	2.B-y	ma-	2.g	ma-
1BB-y	.	.	.	.	.	.	.
.	.	.	.	4A	.	4f	.
.	.	.	.	4G	.	4e	.
.	.	.	.	4F	.	4d	.
=181	=181	=181	=181	=181	=181	=181	=181
1C	-lis,	0G_	.	4E	.	1c	.
.	.	.	.	4D	.	.	.
.	.	.	.	2E	.	.	.
1GG	.	.	.	2D	-lis,	2d	-lis,
.	.	.	.	2d	ab	[2g	ma-
=182	=182	=182	=182	=182	=182	=182	=182
0r	.	0G]	.	2e-X	o-	2g]	.
.	.	.	.	1d	.	1f	.
.	.	.	.	4c	.	2e	.
.	.	.	.	4B-y	.	.	.
=183	=183	=183	=183	=183	=183	=183	=183
2r	.	[0Fl	.	2A	.	[0fl	-lis.
2BB-y	ma-	.	.	2B-y	-mni-	.	.
2AA	.	.	.	2c	-bus	.	.
2FF	.	.	.	[2A	ma-	.	.
=184	=184	=184	=184	=184	=184	=184	=184
1AA	.	0F_	.	4A]	.	0f_	.
.	.	.	.	4G	.	.	.
.	.	.	.	4F	.	.	.
.	.	.	.	4E	.	.	.
1BB-y	.	.	.	4D	.	.	.
.	.	.	.	4C	.	.	.
.	.	.	.	2D	.	.	.
=185	=185	=185	=185	=185	=185	=185	=185
00FFl	-lis.	00F]	.	00Cl	-lis.	00f]	.
==	==	==	==	==	==	==	==
*-	*-	*-	*-	*-	*-	*-	*-
!!!system-decoration: [*]
!!!RDF**kern: i = editorial accidental
!!!RDF**kern: l = terminal long
!!!PTL: <i> New Senfl Edition: Motets for Four Voices (A-I) </i>
!!!PPR: Hollitzer Verlag
!!!PC#: Denkmäler der Tonkunst in Österreich 163.1
!!!PDT: 2021
!!!PED: Scott Lee Edwards, Stefan Gasch, and Sonja Tröster
!!!YEC: Copyright 2021 Denkmäler der Tonkunst in Österreich
!!!YEM: CC-BY-NC 4.0 (https://creativecommons.org/licenses/by-nc/4.0/legalcode)
!!!EED: Benjamin Ory
!!!EEV: 2024/4/17
!!!verovio: header encoded
!!!header-left: @{PTL}\n@{PED}, eds.\n@{PC#} (@{PDT})&nbsp;\n
!!!header-right:
!!!header-center:
